X: 766
T: Opera Reel
C:Fancier
B: jims roots
M:4/4
L:1/8
Q: 1/4=100
K:D
V:1 
%N:Tabledited by Andrea Chapman
%Q:460
A,B,|:"D"D2 DD FDFA | DA,DF "A"EDB,G, | "D"A,B,DE "B7"FEFA |
[1"E"BdAF "A"E2 FE:|[2 "E"BdAF "A"E2 Bc|| "D"d2 cd dAFA |
dcdf "A"egfe | "D"dfed "B7"BAFA | [1 "E"BdAF "A"E2 Bc:| [2 "E"BdAF "A"E2 fg||
"D"a3f "G"g2 ge | "D"faec "A"dcBA | "D"adfa "G"gfeg | "A"faec "D"defg |
 agfg "G"gfeg | "D"faec "A"dcBA | "D"a2 fa "G"gfeg | "A"faec "D"d2 Bc |
 defd "G"efge | "D"faec "A"dcBA | "D"defd "G"efge | "A"faec "D"d2 Bc |
 defd "G"efge | "D"faec "A"dcBA | "D"defd "G"efge | "A"faec "D"d4 |
% abcbook-tune_id 6298c279977af16fceb4dc24


% abcbook-boost 0
% abcbook-tablature 
% abcbook-transpose 
% abcbook-lastupdated 1654178426215
% abcbook-soundfonts 
% abcbook-repeats 1


